X:1
T:26. Ynmse Vasarlag
T:26. Ymse Vasarlag
T:Symra
T:Chr. Haslerud
T:Ivar Aasen
C:Chr. Haslerud
Z:Ivar Aasen
%%score [ 1 2 3 4 ]
L:1/8
Q:1/4=71
M:6/8
K:Ab
V:1 treble nm="Soprano"
V:2 treble nm="Alto"
V:3 treble-8 nm="Tenor"
V:4 bass nm="Bass"
V:1
!p!"^Ikke for langsomt" E | c2 c (ed) B | A2!<(! B c z!<)! e | f2 f (fe) d |!>(! c3 B!>)! z F | %5
w: Det|gjeld aa fa- * ra|var- leg fram der|man- ge Faa- * rar|dul- de. Ein|
 A2 A (AG) =E |!<(! (FA) B!<)! c z!mf! e | (dc) B A2 c | B3 A2 z |] %9
w: kann so lett _ faa|Last _ og Skam der|minst _ ein ven- ta|skul- de.|
V:2
!p! E | E2 E F2 F | E2!<(! G A z!<)! A | A2 A A2 A |!>(! A3 G!>)! z F | F2 F D2 C | %6
w: Det|gjeld aa fa- ra|var- leg fram der|man- ge Faa- rar|dul- de. Ein|kann so lett faa|
!<(! C2 F!<)! =E z!mf! _E | E2 F E2 E | E3 C2 z |] %9
w: Last og Skam der|minst ein ven- ta|skul- de.|
V:3
!p! c | c2 c A2 d | c2!<(! e e z!<)! c | d2 d (dc) d |!>(! (c2 f) B!>)! z c | c2 c B2 G | %6
w: Det|gjeld aa fa- ra|var- leg fram der|man- ge Faa- * rar|dul- * de. Ein|kann so lett faa|
!<(! F2 F!<)! G z!mf! A | (GA) F c2 A | G3 A2 z |] %9
w: Last og Skam der|minst _ ein ven- ta|skul- de.|
V:4
!p! A, | A,,2 A,, D,2 D, | E,2!<(! E, A, z!<)! A, | D,2 F, A,2 F, |!>(! (E,2 =D,) E,!>)! z A, | %5
w: Det|gjeld aa fa- ra|var- leg fram der|man- ge Faa- rar|dul- * de. Ein|
 F,2 F, B,,2 C, |!<(! (A,,F,,) D,!<)! C, z!mf! C, | (B,,A,,) D, E,2 E, | E,3 A,,2 z |] %9
w: kann so lett faa|Last _ og Skam der|minst _ ein ven- ta|skul- de.|

